X:12
T: Meng Mamm huot mer e Man gin, S. 44
N: S0075
O: Luxemburg
S: Die Bauernhochzeit in frheren Zeiten]
R: Liebeslied, Ehestamd, Spott]
M: 2/4
L: 1/16
K: C
GG | E2GGE2GG | c2E2E2
G2 | G2F2D2FF | AAG2E2
GG | E2G2E2GG | c2G2G2
c2 | B2G2A2B2 | c2z4

@@@ Tune index: 8066
